!! 00049] TT[KA
!! NN
!!!OTL: Fengshou ge
!!!ARE: Guangxi, Huanjiang
!! Ethnic Group: Zhuang
!! II, 468
!!!SCT: C0256
!!!YEM: Copyright 1995, estate of Helmut Schaffrath.
**kern
*ICvox
*Ivox
!! Mixed meters:  2/4; 3/4
*M2/4
*k[f#]
*G:
{8g
16e
16e
8g
8a
=1
8b
16b
16dd
[4a
=2
2a]
=3
2b}
=4
{8a
8g
8a
16b
16dd
=5
8b
8a
8g
8r}
=6
{8r
8g
8g
8g
=7
*M3/4
8a
8b
8a
8b
8g
8a
=8
*M2/4
2a
=9
2e}
==
!!!AGN: Shange, Wuzi lohai. Xinminge
!! mehrstimmig mit Sekunden!! +++++ Lied und Seitenangabe stimmen nicht
!!    Åberein!!!! ++++++
!!!ONB: ESAC (Essen Associative Code) Database: CHINA
!!!AMT: irregular
!!!AIN: vox
!!!EED: Helmut Schaffrath
!!!EEV: 1.0
*-
!!!ONB: Tied note syntax fixed by Craig Sapp, 2004/05/03/
